X:1
T:Title
%%score { ( 1 3 ) | ( 2 4 ) }
L:1/8
Q:1/4=100
M:6/8
K:Bb
V:1 treble nm="Grand Piano"
V:3 treble 
V:2 bass 
V:4 bass 
V:1
 [DF]2 [DF] [DF]2 [DB] | [EB]2 [EA] [EA]3 | F2 F F2 c | [Ec]2 [DB] [DB]3 | d2 d d2 [Fc] | %5
w: John~R.~Sweney * * *|||||
[M:15/16] [B,GB]->[B,GB][B,EG][B,GB]3/2- [B,GB]3 |[M:3/4] FD F[DB] [Ec][Fd] | [Ec]3 .[DB]3 | %8
w: |||
 cc c c3 | [Fd][DB] [EG] [DF]3 | z2 z G z2 | A2 B c3 | d2 d d2 [Fc] | %13
w: |||||
[M:15/16] [B,GB]->[B,GB][B,EG][B,GB]3/2- [B,GB]3 |[M:3/4] FD F[DB] [Ec][Fd] | %15
w: ||
[M:7/4] [Ec]3 .[DB]3 z2 z2 z4 |] %16
w: |
V:2
 [B,,B,]2 [B,,B,] [B,,B,]2 [B,,F,] | [C,F,]2 [C,F,] [C,F,]3 | [F,A,E]2 [F,A,E] [F,A,E]2 [F,E] | %3
 [B,,F,]2 [B,,F,] [B,,B,]3 | [B,F]2 [B,F] [B,F]2[K:bass] [D,B,] |[M:15/16] E,->E,E,E,3/2- E,3 | %6
[M:3/4] F,D, F,[B,,F,] [B,,F,][B,,B,] | [F,A,]3 .[B,,B,]3 | [F,A,F][F,A,F] [F,A,F] [F,A,F]3 | %9
 [B,,B,][B,,B,] [B,,B,] [B,,B,]3 | E,2 .E,2[K:treble] c[K:bass]C, | %11
 [F,CF]2[K:treble] [G,C=E] [A,CF]3 | [B,F]2 [B,F] [B,F]2[K:bass] [D,B,] | %13
[M:15/16] E,->E,E,E,3/2- E,3 |[M:3/4] F,D, F,[B,,F,] [B,,F,][B,,B,] | %15
[M:7/4] [F,A,]3 .[B,,B,]3 z2 z2 z4 |] %16
V:3
 x6 | x6 | x6 | x6 | x6 |[M:15/16] x15/2 |[M:3/4] x6 | x6 | x6 | x6 | [B,EG]2 [B,EG] [C=E]2 [CGB] | %11
 x6 | x6 |[M:15/16] x15/2 |[M:3/4] x6 |[M:7/4] x14 |] %16
V:4
 x6 | x6 | x6 | x6 | x5[K:bass] x |[M:15/16] x15/2 |[M:3/4] x6 | x6 | x6 | x6 | %10
 z2 z .C,3[K:treble][K:bass] | x2[K:treble] x4 | x5[K:bass] x |[M:15/16] x15/2 |[M:3/4] x6 | %15
[M:7/4] x14 |] %16

